src/components/Header/icons/new-file.svg

<svg width="16" height="16" fill="none" xmlns="http://www.w3.org/2000/svg"><path fill-rule="evenodd" clip-rule="evenodd" d="M4 7H3V4H0V3h3V0h1v3h3v1H4v3Zm6.5-5.9 3.4 3.5.1.4v8.5l-.5.5h-10l-.5-.5V8h1v5h9V6H9V2H5V1h5.2l.3.1ZM10 2v3h2.9L10 2Z" fill="#C5C5C5"/></svg>

<svg width="16" height="16" viewBox="0 0 16 16" fill="none" xmlns="http://www.w3.org/2000/svg">
<path fill-rule="evenodd" clip-rule="evenodd" d="M4 7H3V4H0V3H3V0H4V3H7V4H4V7ZM10.5 1.09998L13.9 4.59998L14 5V13.5L13.5 14H3.5L3 13.5V8H4V13H13V6H9V2H5V1H10.2L10.5 1.09998ZM10 2V5H12.9L10 2Z" fill="#C5C5C5"/>
</svg>
